X:18020
T:Rakes of Kildare, The
R:Jig
C:Trad.
O:Ireland
Z:Paul Hardy's Session Tunebook 2015 (see www.paulhardy.net). Creative Commons cc by-nc-sa licenced.
M:6/8
L:1/8
Q:3/8=100
K:ADor
G|"Am"EAA AGA|Bcd e2f|"G"gfg ege|dBG "Em"G2A|
"Am"EAA AGA|Bcd e2f|"G"gfg edB|"Am"A3 A2:|
|:a|"Am"aea aea|aea b2a|"G"gfg ege|dBG G2|
A|"Am"EAA AGA|Bcd e2f|"G"gfg edB|"Am"A3 A2:|

